icons/svg/youtube-play.svg

﻿<?xml version="1.0" encoding="utf-8"?>
<!DOCTYPE svg PUBLIC "-//W3C//DTD SVG 1.1//EN" "http://www.w3.org/Graphics/SVG/1.1/DTD/svg11.dtd">
<svg xmlns="http://www.w3.org/2000/svg" xmlns:xlink="http://www.w3.org/1999/xlink" version="1.1" baseProfile="full" width="24" height="24" viewBox="0 0 24.00 24.00" enable-background="new 0 0 24.00 24.00" xml:space="preserve">
	<path fill="#000000" fill-opacity="1" stroke-width="0.2" stroke-linejoin="round" d="M 9.9994,16.498L 9.9994,7.49805L 15.9994,11.998M 20.0014,4.39807C 19.3994,4.20105 15.7006,3.99805 11.9994,3.99805C 8.3004,3.99805 4.6014,4.18506 3.9994,4.38202C 2.4354,4.89807 1.9994,8.40204 1.9994,11.998C 1.9994,15.5941 2.4354,19.098 3.9994,19.6141C 4.6014,19.811 8.3004,19.998 11.9994,19.998C 15.7006,19.998 19.3994,19.811 20.0014,19.6141C 21.5634,19.098 21.9894,15.5941 21.9894,11.998C 21.9894,8.40204 21.5634,4.91406 20.0014,4.39807 Z "/>
</svg>

<svg xmlns="http://www.w3.org/2000/svg" version="1.1" baseProfile="full" width="24" height="24" viewBox="0 0 24.00 24.00" xml:space="preserve"><path fill="#000" fill-opacity="1" stroke-width=".2" stroke-linejoin="round" d="M10 16.498v-9l6 4.5m4-7.6c-.6-.197-4.3-.4-8-.4s-7.4.187-8 .384c-1.565.516-2 4.02-2 7.616s.435 7.1 2 7.616c.6.197 4.3.384 8 .384s7.4-.187 8-.384c1.563-.516 1.99-4.02 1.99-7.616s-.427-7.084-1.99-7.6z"/></svg>
